; generated by PrusaSlicer 2.5.0+win64 on 2023-01-15 at 17:29:41 UTC


;
;
; 

; external perimeters extrusion width = 0.65mm
; perimeters extrusion width = 0.65mm
; infill extrusion width = 0.65mm
; solid infill extrusion width = 0.65mm
; top infill extrusion width = 0.60mm
; first layer extrusion width = 0.65mm

; external perimeters extrusion width = 0.65mm
; perimeters extrusion width = 0.65mm
; infill extrusion width = 0.65mm
; solid infill extrusion width = 0.65mm
; top infill extrusion width = 0.60mm
; first layer extrusion width = 0.65mm

; external perimeters extrusion width = 0.65mm
; perimeters extrusion width = 0.65mm
; infill extrusion width = 0.65mm
; solid infill extrusion width = 0.65mm
; top infill extrusion width = 0.60mm
; first layer extrusion width = 0.65mm

; external perimeters extrusion width = 0.65mm
; perimeters extrusion width = 0.65mm
; infill extrusion width = 0.65mm
; solid infill extrusion width = 0.65mm
; top infill extrusion width = 0.60mm
; first layer extrusion width = 0.65mm

M73 P0 R7
M73 Q0 S7
M201 X1000 Y1000 Z200 E5000 ; sets maximum accelerations, mm/sec^2
M203 X200 Y200 Z12 E120 ; sets maximum feedrates, mm / sec
M204 P1250 R1250 T1250 ; sets acceleration (P, T) and retract acceleration (R), mm/sec^2
M205 X8.00 Y8.00 Z0.40 E4.50 ; sets the jerk limits, mm/sec
M205 S0 T0 ; sets the minimum extruding and travel feed rate, mm/sec
M107
;TYPE:Custom
M862.3 P "MK3S" ; printer model check
M862.1 P0.6 ; nozzle diameter check
M115 U3.11.0 ; tell printer latest fw version
G90 ; use absolute coordinates
M83 ; extruder relative mode
M104 S230 ; set extruder temp
M140 S85 ; set bed temp
M190 S85 ; wait for bed temp
M109 S230 ; wait for extruder temp
G28 W ; home all without mesh bed level
G80 ; mesh bed leveling

G1 Z0.2 F720
G1 Y-3 F1000 ; go outside print area
G92 E0
G1 X60 E9 F1000 ; intro line
G1 X100 E12.5 F1000 ; intro line

G92 E0
M221 S95
G21 ; set units to millimeters
G90 ; use absolute coordinates
M83 ; use relative distances for extrusion
M900 K0.04 ; Filament gcode LA 1.5
M900 K24 ; Filament gcode LA 1.0
M107
;LAYER_CHANGE
;Z:0.2
;HEIGHT:0.2
;BEFORE_LAYER_CHANGE
G92 E0.0
;0.2


G1 E-1 F2100
M73 P1 R7
M73 Q1 S7
G1 Z.2 F720
;AFTER_LAYER_CHANGE
;0.2
G1 Z.4
G1 X121.534 Y106.786 F10800
G1 Z.2 F720
G1 E1 F1500
M204 S800
;TYPE:Skirt/Brim
;WIDTH:0.65
G1 F1193
G1 X122.179 Y106.088 E.04802
G1 X122.924 Y105.497 E.04802
G1 X123.751 Y105.026 E.04802
G1 X124.639 Y104.686 E.04801
G1 X125.57 Y104.487 E.04802
G1 X126.538 Y104.432 E.04896
G1 X133.209 Y104.47 E.33678
G1 X134.138 Y104.561 E.04708
G1 X134.84 Y104.725 E.03644
G1 X135.935 Y105.166 E.05958
G1 X136.971 Y105.843 E.06244
G1 X137.946 Y106.825 E.06989
G1 X138.588 Y107.816 E.05957
G1 X139.035 Y108.925 E.0604
G1 X139.26 Y110.084 E.05958
G1 X139.621 Y117.896 E.39477
G1 X139.567 Y118.846 E.04802
M73 Q2 S7
G1 X139.217 Y120.227 E.07193
M73 P2 R7
G1 X138.922 Y120.886 E.03644
G1 X138.42 Y121.694 E.04801
G1 X137.451 Y122.739 E.07194
G1 X136.269 Y123.535 E.07194
G1 X134.937 Y124.042 E.07193
G1 X133.771 Y124.222 E.05957
G1 X126.427 Y124.111 E.37074
G1 X125.537 Y124.021 E.04517
G1 X124.17 Y123.618 E.07194
G1 X122.931 Y122.914 E.07194
G1 X121.885 Y121.946 E.07194
G1 X121.086 Y120.766 E.07194
G1 X120.639 Y119.656 E.0604
G1 X120.396 Y118.252 E.07193
G1 X120.192 Y110.52 E.39042
G1 X120.284 Y109.574 E.04801
G1 X120.519 Y108.652 E.04802
G1 X121.002 Y107.575 E.05957
G1 X121.483 Y106.861 E.04347
M204 S1000
G1 X121.985 Y107.201 F10800
M204 S800
G1 F1193
G1 X122.6 Y106.525 E.04612
G1 X123.274 Y105.993 E.04332
G1 X124.02 Y105.57 E.04333
G1 X124.823 Y105.265 E.04332
G1 X125.662 Y105.087 E.04333
G1 X126.534 Y105.039 E.04409
G1 X133.206 Y105.077 E.33678
G1 X134.465 Y105.251 E.06415
G1 X135.46 Y105.608 E.05337
G1 X136.553 Y106.285 E.0649
G1 X137.337 Y107.039 E.05489
G1 X138.055 Y108.106 E.06491
G1 X138.45 Y109.086 E.05337
G1 X138.657 Y110.154 E.05488
G1 X139.015 Y117.92 E.39243
G1 X138.964 Y118.776 E.04333
G1 X138.646 Y120.022 E.06491
G1 X137.937 Y121.326 E.07491
G1 X137.064 Y122.27 E.06491
G1 X136 Y122.991 E.06491
G1 X134.799 Y123.451 E.06491
G1 X133.724 Y123.617 E.05488
G1 X126.438 Y123.504 E.36786
G1 X125.629 Y123.421 E.04101
G1 X124.397 Y123.055 E.06491
M73 Q3 S7
G1 X123.28 Y122.418 E.06491
G1 X122.338 Y121.542 E.06491
G1 X121.62 Y120.476 E.06491
M73 P3 R7
G1 X121.225 Y119.495 E.05337
G1 X121.002 Y118.229 E.0649
G1 X120.799 Y110.544 E.38807
G1 X120.88 Y109.689 E.04332
G1 X121.09 Y108.857 E.04333
G1 X121.535 Y107.865 E.05488
G1 X121.935 Y107.275 E.03596
M204 S1000
; printing object ComA_Dist.stl id:1 copy 0
;WIPE_START
G1 F8640
G1 X122.6 Y106.525 E-.23154
G1 X123.274 Y105.993 E-.19818
G1 X124.02 Y105.57 E-.19818
G1 X124.823 Y105.265 E-.19818
G1 X125.348 Y105.154 E-.12392
;WIPE_END
G1 E-.05 F2100
G1 Z.4 F720
G1 X132.578 Y120.413 F10800
G1 Z.2 F720
G1 E1 F1500
M204 S800
;TYPE:External perimeter
;WIDTH:0.653728
G1 F1193
G1 X132.163 Y120.239 E.02284
;WIDTH:0.652983
G1 X131.69 Y119.896 E.02964
;WIDTH:0.652513
G1 X131.34 Y119.504 E.02666
;WIDTH:0.652787
G1 X131.117 Y119.129 E.02211
;WIDTH:0.657481
G1 X130.941 Y118.633 E.02687
G1 X130.868 Y118.123 E.02633
;WIDTH:0.652585
G1 X130.896 Y117.608 E.02617
;WIDTH:0.659455
G1 X131.042 Y117.09 E.02755
G1 X131.283 Y116.625 E.02687
;WIDTH:0.648958
G1 X131.624 Y116.201 E.0274
G1 X132.081 Y115.857 E.02886
;WIDTH:0.648172
G1 X132.662 Y115.583 E.03234
G1 X133.178 Y115.488 E.02636
;WIDTH:0.651924
G1 X133.679 Y115.484 E.02539
;WIDTH:0.653727
G1 X134.107 Y115.57 E.02218
G1 X134.657 Y115.8 E.03024
;WIDTH:0.653023
G1 X135.087 Y116.103 E.0267
G1 X135.389 Y116.417 E.02212
;WIDTH:0.652308
G1 X135.706 Y116.921 E.03017
;WIDTH:0.657479
G1 X135.894 Y117.474 E.02988
G1 X135.96 Y118.054 E.02983
;WIDTH:0.652585
G1 X135.923 Y118.431 E.01918
;WIDTH:0.65945
G1 X135.778 Y118.948 E.02755
G1 X135.619 Y119.294 E.01951
;WIDTH:0.648999
G1 X135.321 Y119.697 E.02526
;WIDTH:0.652252
G1 X134.936 Y120.059 E.02678
;WIDTH:0.65872
G1 X134.482 Y120.325 E.0269
G1 X134.192 Y120.433 E.01587
;WIDTH:0.647769
G1 X133.631 Y120.557 E.0289
;WIDTH:0.651922
G1 X133.14 Y120.554 E.02485
;WIDTH:0.653728
G1 X132.661 Y120.447 E.02496
M204 S1000
;WIPE_START
G1 F8640
G1 X132.163 Y120.239 E-.12462
G1 X131.69 Y119.896 E-.13491
G1 X131.34 Y119.504 E-.12146
G1 X131.117 Y119.129 E-.10068
G1 X130.941 Y118.633 E-.12139
G1 X130.868 Y118.123 E-.11896
G1 X130.896 Y117.608 E-.11921
G1 X131.024 Y117.154 E-.10877
;WIPE_END
G1 E-.05 F2100
G1 Z.4 F720
G1 X134.761 Y119.409 F10800
G1 Z.2 F720
G1 E1 F1500
M204 S800
;WIDTH:0.648955
G1 F1193
G1 X134.458 Y119.651 E.01954
;WIDTH:0.643701
G1 X133.975 Y119.874 E.02657
;WIDTH:0.649467
G1 X133.482 Y119.962 E.02527
G1 X133.063 Y119.931 E.02118
;WIDTH:0.647287
G1 X132.662 Y119.81 E.02108
;WIDTH:0.642505
G1 X132.294 Y119.607 E.02092
;WIDTH:0.642071
G1 X131.979 Y119.33 E.02091
;WIDTH:0.652787
G1 X131.68 Y118.897 E.02667
;WIDTH:0.657481
G1 X131.533 Y118.478 E.0227
G1 X131.466 Y117.987 E.02534
;WIDTH:0.64847
M73 P3 R6
G1 X131.527 Y117.556 E.0219
;WIDTH:0.649659
G1 X131.72 Y117.06 E.02684
G1 X132.021 Y116.659 E.02531
;WIDTH:0.648958
G1 X132.361 Y116.388 E.02191
;WIDTH:0.649346
G1 X132.843 Y116.162 E.02682
;WIDTH:0.649469
G1 X133.337 Y116.077 E.02531
G1 X133.756 Y116.108 E.02118
;WIDTH:0.647288
G1 X134.158 Y116.229 E.02108
;WIDTH:0.642504
G1 X134.525 Y116.432 E.02092
;WIDTH:0.652308
G1 X134.891 Y116.767 E.02514
G1 X135.143 Y117.152 E.02335
;WIDTH:0.657479
G1 X135.286 Y117.561 E.02212
G1 X135.353 Y118.052 E.02534
;WIDTH:0.64847
G1 X135.293 Y118.483 E.0219
;WIDTH:0.649635
G1 X135.099 Y118.978 E.02684
G1 X134.824 Y119.345 E.02314
M204 S1000
G1 X134.867 Y119.782 F10800
; stop printing object ComA_Dist.stl id:1 copy 0
; printing object ComA_Dist.stl id:3 copy 0
;WIPE_START
G1 F8640
G1 X134.458 Y119.651 E-.11003
G1 X133.975 Y119.874 E-.12283
G1 X133.482 Y119.962 E-.11569
G1 X133.063 Y119.931 E-.09699
G1 X132.662 Y119.81 E-.09687
G1 X132.294 Y119.607 E-.09687
G1 X131.979 Y119.33 E-.0969
G1 X131.68 Y118.897 E-.12146
G1 X131.548 Y118.52 E-.09236
;WIPE_END
G1 E-.05 F2100
G1 Z.4 F720
G1 X125.767 Y120.292 F10800
G1 Z.2 F720
G1 E1 F1500
M204 S800
;WIDTH:0.653728
G1 F1193
G1 X125.352 Y120.119 E.02284
;WIDTH:0.652983
G1 X124.879 Y119.776 E.02964
;WIDTH:0.652513
G1 X124.529 Y119.383 E.02666
;WIDTH:0.652787
G1 X124.306 Y119.009 E.02211
;WIDTH:0.657481
G1 X124.13 Y118.513 E.02687
G1 X124.057 Y118.003 E.02633
;WIDTH:0.652585
G1 X124.085 Y117.488 E.02617
;WIDTH:0.659455
G1 X124.231 Y116.97 E.02755
G1 X124.472 Y116.505 E.02687
;WIDTH:0.648958
G1 X124.813 Y116.081 E.0274
G1 X125.27 Y115.737 E.02886
;WIDTH:0.648172
G1 X125.851 Y115.463 E.03234
G1 X126.367 Y115.368 E.02636
;WIDTH:0.651924
G1 X126.868 Y115.364 E.02539
;WIDTH:0.653727
G1 X127.296 Y115.45 E.02218
G1 X127.845 Y115.679 E.03024
;WIDTH:0.653023
G1 X128.276 Y115.982 E.0267
G1 X128.578 Y116.296 E.02212
;WIDTH:0.652308
G1 X128.895 Y116.8 E.03017
;WIDTH:0.657479
G1 X129.083 Y117.354 E.02988
G1 X129.149 Y117.934 E.02983
;WIDTH:0.652585
G1 X129.112 Y118.311 E.01918
;WIDTH:0.65945
G1 X128.967 Y118.828 E.02755
G1 X128.808 Y119.174 E.01951
;WIDTH:0.648999
M73 Q4 S7
G1 X128.51 Y119.577 E.02526
;WIDTH:0.652252
G1 X128.124 Y119.939 E.02678
;WIDTH:0.65872
G1 X127.671 Y120.205 E.0269
G1 X127.381 Y120.313 E.01587
;WIDTH:0.647769
G1 X126.82 Y120.436 E.0289
;WIDTH:0.651922
G1 X126.329 Y120.434 E.02485
;WIDTH:0.653728
G1 X125.85 Y120.327 E.02496
M204 S1000
;WIPE_START
G1 F8640
M73 P4 R6
G1 X125.352 Y120.119 E-.12461
G1 X124.879 Y119.776 E-.13491
G1 X124.529 Y119.383 E-.12146
G1 X124.306 Y119.009 E-.10068
G1 X124.13 Y118.513 E-.12139
G1 X124.057 Y118.003 E-.11896
G1 X124.085 Y117.488 E-.11921
G1 X124.213 Y117.034 E-.10878
;WIPE_END
G1 E-.05 F2100
G1 Z.4 F720
G1 X127.956 Y119.273 F10800
G1 Z.2 F720
G1 E1 F1500
M204 S800
;WIDTH:0.645507
G1 F1193
G1 X127.647 Y119.531 E.02017
;WIDTH:0.643701
G1 X127.164 Y119.754 E.02657
;WIDTH:0.649467
G1 X126.671 Y119.842 E.02527
G1 X126.252 Y119.811 E.02118
;WIDTH:0.647287
G1 X125.85 Y119.69 E.02108
;WIDTH:0.642505
G1 X125.483 Y119.487 E.02092
;WIDTH:0.642071
G1 X125.168 Y119.21 E.02091
;WIDTH:0.652787
G1 X124.869 Y118.777 E.02667
;WIDTH:0.657481
G1 X124.722 Y118.358 E.0227
G1 X124.655 Y117.866 E.02534
;WIDTH:0.64847
G1 X124.716 Y117.436 E.0219
;WIDTH:0.649659
G1 X124.909 Y116.94 E.02684
G1 X125.21 Y116.539 E.02531
;WIDTH:0.648958
G1 X125.55 Y116.268 E.02191
;WIDTH:0.649346
G1 X126.032 Y116.042 E.02682
;WIDTH:0.649469
G1 X126.526 Y115.956 E.02531
G1 X126.945 Y115.988 E.02118
;WIDTH:0.647288
G1 X127.347 Y116.109 E.02108
;WIDTH:0.642504
G1 X127.714 Y116.312 E.02092
;WIDTH:0.652308
G1 X128.08 Y116.647 E.02514
G1 X128.332 Y117.032 E.02335
;WIDTH:0.657479
G1 X128.475 Y117.441 E.02212
G1 X128.542 Y117.932 E.02534
;WIDTH:0.64847
G1 X128.482 Y118.363 E.0219
;WIDTH:0.649635
G1 X128.288 Y118.858 E.02684
G1 X128.03 Y119.211 E.02205
;WIDTH:0.645507
G1 X128.025 Y119.216 E.00033
M204 S1000
; stop printing object ComA_Dist.stl id:3 copy 0
; printing object ComA_Dist.stl id:0 copy 0
;WIPE_START
G1 F8640
G1 X127.647 Y119.531 E-.11371
G1 X127.164 Y119.754 E-.12283
G1 X126.671 Y119.842 E-.11569
G1 X126.252 Y119.811 E-.09699
G1 X125.85 Y119.69 E-.09687
G1 X125.483 Y119.487 E-.09687
G1 X125.168 Y119.21 E-.0969
G1 X124.869 Y118.777 E-.12146
G1 X124.742 Y118.414 E-.08867
;WIPE_END
G1 E-.05 F2100
G1 Z.4 F720
G1 X128.017 Y111.705 F10800
G1 Z.2 F720
G1 E1 F1500
M204 S800
;WIDTH:0.649635
G1 F1193
G1 X127.793 Y112.004 E.01888
;WIDTH:0.648955
G1 X127.453 Y112.275 E.02191
;WIDTH:0.643701
G1 X126.97 Y112.499 E.02657
;WIDTH:0.649467
G1 X126.477 Y112.586 E.02527
G1 X126.058 Y112.555 E.02118
;WIDTH:0.647287
G1 X125.656 Y112.434 E.02108
;WIDTH:0.642505
G1 X125.289 Y112.231 E.02092
;WIDTH:0.643873
G1 X125.017 Y112.002 E.01775
;WIDTH:0.647323
G1 X124.723 Y111.618 E.02434
G1 X124.556 Y111.231 E.0212
;WIDTH:0.646564
G1 X124.464 Y110.694 E.02732
G1 X124.521 Y110.18 E.02596
;WIDTH:0.649659
G1 X124.715 Y109.685 E.02684
G1 X125.016 Y109.283 E.02531
;WIDTH:0.648958
G1 X125.356 Y109.012 E.02191
;WIDTH:0.649346
G1 X125.837 Y108.786 E.02682
;WIDTH:0.649469
G1 X126.332 Y108.701 E.02531
G1 X126.751 Y108.732 E.02118
;WIDTH:0.647288
G1 X127.152 Y108.853 E.02108
;WIDTH:0.642504
G1 X127.52 Y109.056 E.02092
;WIDTH:0.652308
G1 X127.886 Y109.391 E.02514
G1 X128.138 Y109.776 E.02335
;WIDTH:0.657479
G1 X128.281 Y110.185 E.02212
G1 X128.348 Y110.676 E.02534
;WIDTH:0.64847
G1 X128.287 Y111.107 E.0219
;WIDTH:0.649635
G1 X128.071 Y111.632 E.02866
M204 S1000
;WIPE_START
G1 F8640
G1 X127.793 Y112.004 E-.10719
G1 X127.453 Y112.275 E-.1004
G1 X126.97 Y112.499 E-.12283
G1 X126.477 Y112.586 E-.11569
G1 X126.058 Y112.555 E-.09699
G1 X125.656 Y112.434 E-.09687
G1 X125.289 Y112.231 E-.09687
G1 X125.017 Y112.002 E-.082
G1 X124.723 Y111.618 E-.11182
G1 X124.69 Y111.541 E-.01934
;WIPE_END
G1 E-.05 F2100
G1 Z.4 F720
G1 X125.75 Y113.102 F10800
G1 Z.2 F720
G1 E1 F1500
M204 S800
;WIDTH:0.653728
G1 F1193
G1 X125.157 Y112.863 E.03245
;WIDTH:0.652983
G1 X124.684 Y112.521 E.02964
;WIDTH:0.652513
G1 X124.334 Y112.128 E.02666
;WIDTH:0.652787
G1 X124.112 Y111.753 E.02211
;WIDTH:0.657481
G1 X123.936 Y111.257 E.02687
G1 X123.863 Y110.747 E.02633
;WIDTH:0.652585
G1 X123.891 Y110.232 E.02617
;WIDTH:0.659455
G1 X124.036 Y109.715 E.02755
G1 X124.277 Y109.249 E.02687
;WIDTH:0.648958
G1 X124.618 Y108.826 E.0274
G1 X125.076 Y108.481 E.02886
;WIDTH:0.648172
G1 X125.657 Y108.207 E.03234
G1 X126.172 Y108.112 E.02636
;WIDTH:0.651924
G1 X126.674 Y108.108 E.02539
;WIDTH:0.653727
G1 X127.102 Y108.194 E.02218
G1 X127.651 Y108.424 E.03024
;WIDTH:0.653023
G1 X128.081 Y108.727 E.0267
G1 X128.384 Y109.041 E.02212
;WIDTH:0.652308
G1 X128.701 Y109.545 E.03017
;WIDTH:0.657479
G1 X128.889 Y110.098 E.02988
G1 X128.955 Y110.678 E.02983
;WIDTH:0.652585
G1 X128.918 Y111.055 E.01918
;WIDTH:0.65945
G1 X128.772 Y111.572 E.02755
G1 X128.613 Y111.918 E.01951
;WIDTH:0.648999
G1 X128.315 Y112.321 E.02526
;WIDTH:0.652252
G1 X127.93 Y112.683 E.02678
;WIDTH:0.65872
G1 X127.477 Y112.949 E.0269
G1 X127.187 Y113.057 E.01587
;WIDTH:0.647769
G1 X126.626 Y113.181 E.0289
;WIDTH:0.651922
G1 X126.135 Y113.179 E.02485
;WIDTH:0.653728
G1 X125.838 Y113.119 E.01535
M204 S1000
; stop printing object ComA_Dist.stl id:0 copy 0
; printing object ComA_Dist.stl id:2 copy 0
;WIPE_START
G1 F8640
G1 X125.157 Y112.863 E-.168
G1 X124.684 Y112.521 E-.13491
G1 X124.334 Y112.128 E-.12146
G1 X124.112 Y111.753 E-.10068
G1 X123.936 Y111.257 E-.12139
G1 X123.863 Y110.747 E-.11896
G1 X123.891 Y110.232 E-.11921
G1 X123.967 Y109.959 E-.06539
;WIPE_END
G1 E-.05 F2100
G1 Z.4 F720
G1 X132.244 Y113.076 F10800
G1 Z.2 F720
G1 E1 F1500
M204 S800
G1 F1193
G1 X131.829 Y112.902 E.02284
;WIDTH:0.652983
G1 X131.356 Y112.559 E.02964
;WIDTH:0.652513
G1 X131.006 Y112.166 E.02666
;WIDTH:0.652787
G1 X130.783 Y111.792 E.02211
;WIDTH:0.657481
G1 X130.607 Y111.296 E.02687
G1 X130.534 Y110.786 E.02633
;WIDTH:0.652585
G1 X130.562 Y110.271 E.02617
;WIDTH:0.659455
G1 X130.708 Y109.753 E.02755
G1 X130.949 Y109.288 E.02687
;WIDTH:0.648958
G1 X131.29 Y108.864 E.0274
G1 X131.748 Y108.52 E.02886
;WIDTH:0.648172
G1 X132.329 Y108.246 E.03234
G1 X132.844 Y108.151 E.02636
;WIDTH:0.651924
G1 X133.345 Y108.147 E.02539
;WIDTH:0.653727
G1 X133.773 Y108.233 E.02218
G1 X134.323 Y108.463 E.03024
;WIDTH:0.653023
M73 Q5 S7
G1 X134.753 Y108.766 E.0267
G1 X135.055 Y109.08 E.02212
;WIDTH:0.652308
G1 X135.373 Y109.584 E.03017
;WIDTH:0.657479
G1 X135.56 Y110.137 E.02988
G1 X135.626 Y110.717 E.02983
;WIDTH:0.652585
G1 X135.589 Y111.094 E.01918
;WIDTH:0.65945
G1 X135.444 Y111.611 E.02755
G1 X135.285 Y111.957 E.01951
;WIDTH:0.648999
M73 P5 R6
G1 X134.987 Y112.36 E.02526
;WIDTH:0.652252
G1 X134.602 Y112.722 E.02678
;WIDTH:0.65872
G1 X134.149 Y112.988 E.0269
G1 X133.858 Y113.096 E.01587
;WIDTH:0.647769
G1 X133.297 Y113.22 E.0289
;WIDTH:0.651922
G1 X132.806 Y113.217 E.02485
;WIDTH:0.653728
G1 X132.327 Y113.11 E.02496
M204 S1000
;WIPE_START
G1 F8640
G1 X131.829 Y112.902 E-.12461
G1 X131.356 Y112.559 E-.13491
M73 Q5 S6
G1 X131.006 Y112.166 E-.12146
G1 X130.783 Y111.792 E-.10068
G1 X130.607 Y111.296 E-.12139
G1 X130.534 Y110.786 E-.11896
G1 X130.562 Y110.271 E-.11921
G1 X130.69 Y109.817 E-.10878
