; generated by PrusaSlicer 2.5.0+win64 on 2023-01-12 at 18:20:32 UTC


;
;
; 

; external perimeters extrusion width = 0.65mm
; perimeters extrusion width = 0.65mm
; infill extrusion width = 0.65mm
; solid infill extrusion width = 0.65mm
; top infill extrusion width = 0.60mm
; first layer extrusion width = 0.65mm

M73 P0 R31
M73 C15
M73 Q0 S31
M73 D16
M201 X1000 Y1000 Z200 E5000 ; sets maximum accelerations, mm/sec^2
M203 X200 Y200 Z12 E120 ; sets maximum feedrates, mm / sec
M204 P1250 R1250 T1250 ; sets acceleration (P, T) and retract acceleration (R), mm/sec^2
M205 X8.00 Y8.00 Z0.40 E4.50 ; sets the jerk limits, mm/sec
M205 S0 T0 ; sets the minimum extruding and travel feed rate, mm/sec
M107
;TYPE:Custom
M862.3 P "MK3S" ; printer model check
M862.1 P0.6 ; nozzle diameter check
M115 U3.11.0 ; tell printer latest fw version
G90 ; use absolute coordinates
M83 ; extruder relative mode
M104 S230 ; set extruder temp
M140 S85 ; set bed temp
M190 S85 ; wait for bed temp
M109 S230 ; wait for extruder temp
G28 W ; home all without mesh bed level
G80 ; mesh bed leveling

G1 Z0.2 F720
G1 Y-3 F1000 ; go outside print area
G92 E0
G1 X60 E9 F1000 ; intro line
G1 X100 E12.5 F1000 ; intro line

G92 E0
M221 S95
G21 ; set units to millimeters
G90 ; use absolute coordinates
M83 ; use relative distances for extrusion
M900 K0.04 ; Filament gcode LA 1.5
M900 K24 ; Filament gcode LA 1.0
M107
;LAYER_CHANGE
;Z:0.2
;HEIGHT:0.2
;BEFORE_LAYER_CHANGE
G92 E0.0
;0.2


M73 P0 R30
M73 D15
G1 E-1 F2100
G1 Z.2 F720
;AFTER_LAYER_CHANGE
;0.2
G1 Z.4
G1 X73.54 Y68.625 F10800
G1 Z.2 F720
M73 Q0 S30
G1 E1 F1500
M204 S800
;TYPE:Skirt/Brim
;WIDTH:0.65
G1 F1200
G1 X74.599 Y67.663 E.0722
G1 X75.755 Y67.393 E.05992
G1 X169.472 Y67.403 E4.73073
G1 X170.788 Y67.558 E.06688
G1 X172.057 Y67.939 E.06688
G1 X173.24 Y68.534 E.06688
G1 X174.302 Y69.326 E.06688
G1 X175.211 Y70.291 E.06688
G1 X175.962 Y71.451 E.06978
G1 X176.462 Y72.615 E.06395
G1 X176.687 Y73.457 E.04399
G1 X176.842 Y74.773 E.06688
G1 X176.852 Y135 E3.0402
G1 X176.687 Y136.543 E.07833
G1 X176.462 Y137.385 E.04399
G1 X175.938 Y138.602 E.06688
G1 X174.919 Y140.057 E.0897
G1 X173.954 Y140.966 E.06688
G1 X172.847 Y141.693 E.06688
G1 X171.63 Y142.217 E.06688
G1 X170.34 Y142.521 E.06688
G1 X169.245 Y142.607 E.05547
G1 X75.755 Y142.607 E4.71926
G1 X74.38 Y142.215 E.0722
M73 P1 R30
M73 Q1 S30
G1 X73.418 Y141.156 E.0722
G1 X73.148 Y140 E.05992
G1 X73.148 Y70 E3.53352
G1 X73.516 Y68.711 E.06766
M204 S1000
; printing object ComA_Cover.stl id:0 copy 0
;WIPE_START
G1 F8640
G1 X74.599 Y67.663 E-.34808
G1 X75.755 Y67.393 E-.27408
G1 X77.175 Y67.393 E-.32784
;WIPE_END
G1 E-.05 F2100
G1 Z.4 F720
G1 X99.224 Y104.336 F10800
G1 Z.2 F720
G1 E1 F1500
M204 S800
;TYPE:Perimeter
;WIDTH:0.633965
G1 F1200
G1 X99.27 Y104.267 E.00406
;WIDTH:0.678732
G1 X99.343 Y104.138 E.00784
;WIDTH:0.723499
G1 X99.416 Y104.009 E.00839
;WIDTH:0.768266
G1 X99.489 Y103.88 E.00894
;WIDTH:0.813032
G1 X99.562 Y103.751 E.00949
;WIDTH:0.854904
G1 X99.58 Y103.684 E.00472
;WIDTH:0.896776
G1 X99.598 Y103.616 E.00496
;WIDTH:0.938648
G1 X99.616 Y103.549 E.0052
G1 X99.667 Y103.601 E.00542
;WIDTH:0.895122
G1 X99.718 Y103.653 E.00515
;WIDTH:0.851596
G1 X99.768 Y103.705 E.00489
;WIDTH:0.80807
G1 X99.819 Y103.757 E.00463
;WIDTH:0.764544
G1 X99.87 Y103.809 E.00436
;WIDTH:0.721018
G1 X99.921 Y103.861 E.0041
;WIDTH:0.677491
G1 X99.972 Y103.913 E.00384
;WIDTH:0.633965
G1 X100.084 Y104.114 E.01132
G1 X99.915 Y104.274 E.01146
G1 X99.688 Y104.616 E.02017
;WIDTH:0.628131
G1 X99.609 Y105.075 E.02269
;WIDTH:0.621327
G1 X99.522 Y104.721 E.01756
;WIDTH:0.633965
G1 X99.279 Y104.407 E.01951
M204 S1000
;WIPE_START
G1 F8640
G1 X99.27 Y104.267 E-.03227
G1 X99.343 Y104.138 E-.03422
G1 X99.416 Y104.009 E-.03422
G1 X99.489 Y103.88 E-.03422
G1 X99.562 Y103.751 E-.03422
G1 X99.58 Y103.684 E-.01613
G1 X99.598 Y103.616 E-.01613
G1 X99.616 Y103.549 E-.01613
G1 X99.667 Y103.601 E-.01679
G1 X99.718 Y103.653 E-.01679
G1 X99.768 Y103.705 E-.01679
G1 X99.819 Y103.757 E-.01679
G1 X99.87 Y103.809 E-.01679
G1 X99.921 Y103.861 E-.01679
G1 X99.972 Y103.913 E-.01679
G1 X100.084 Y104.114 E-.05319
G1 X99.915 Y104.274 E-.05383
G1 X99.688 Y104.616 E-.09474
G1 X99.609 Y105.075 E-.10765
G1 X99.522 Y104.721 E-.08432
G1 X99.279 Y104.407 E-.09166
;WIPE_END
G1 E-.17949 F2100
G1 Z.4 F720
G1 X102.635 Y104.848 F10800
G1 Z.2 F720
G1 E1 F1500
M204 S800
;TYPE:External perimeter
;WIDTH:0.598935
G1 F1200
G1 X102.71 Y105.008 E.00818
G1 X102.492 Y105.166 E.01248
G1 X102.298 Y105.261 E.00996
G1 X102.151 Y105.27 E.00681
G1 X101.968 Y105.138 E.01045
G1 X101.729 Y104.684 E.02371
;WIDTH:0.590627
G1 X101.581 Y104.516 E.01019
;WIDTH:0.571608
G1 X101.379 Y104.391 E.01046
;WIDTH:0.590627
G1 X101.814 Y104.58 E.02161
;WIDTH:0.598935
G1 X102.471 Y104.765 E.03156
G1 X102.555 Y104.807 E.00432
M204 S1000
G1 X102.577 Y105.015 F10800
;WIPE_START
G1 F8640
G1 X102.71 Y105.008 E-.05865
G1 X102.492 Y105.166 E-.06232
G1 X102.298 Y105.261 E-.04973
G1 X102.151 Y105.27 E-.03401
G1 X101.968 Y105.138 E-.0522
G1 X101.729 Y104.684 E-.11842
G1 X101.581 Y104.516 E-.05168
G1 X101.379 Y104.391 E-.05496
G1 X101.814 Y104.58 E-.10954
G1 X102.471 Y104.765 E-.15762
G1 X102.555 Y104.807 E-.02158
;WIPE_END
G1 E-.2293 F2100
G1 Z.4 F720
G1 X102.519 Y103.026 F10800
G1 Z.2 F720
G1 E1 F1500
M204 S800
;WIDTH:0.944612
G1 F1200
G1 X102.591 Y103.076 E.00655
;WIDTH:0.895651
G1 X102.663 Y103.126 E.00619
;WIDTH:0.846689
G1 X102.734 Y103.176 E.00584
;WIDTH:0.797728
G1 X102.806 Y103.226 E.00548
;WIDTH:0.748766
G1 X102.878 Y103.276 E.00513
;WIDTH:0.699805
G1 X102.95 Y103.325 E.00477
;WIDTH:0.650843
G1 X103.021 Y103.375 E.00442
;WIDTH:0.601882
G1 X103.093 Y103.425 E.00406
;WIDTH:0.55292
G1 X103.341 Y103.545 E.01168
M204 S1000
;WIPE_START
G1 F8640
G1 X103.093 Y103.425 E-.06361
G1 X103.021 Y103.375 E-.02017
G1 X102.95 Y103.325 E-.02017
G1 X102.878 Y103.276 E-.02017
G1 X102.806 Y103.226 E-.02017
G1 X102.734 Y103.176 E-.02017
G1 X102.663 Y103.126 E-.02017
G1 X102.591 Y103.076 E-.02017
G1 X102.519 Y103.026 E-.02017
;WIPE_END
G1 E-.775 F2100
G1 Z.4 F720
G1 X104.438 Y105.11 F10800
G1 Z.2 F720
G1 E1 F1500
M204 S800
G1 F1200
G1 X104.421 Y104.618 E.02088
M204 S1000
;WIPE_START
G1 F8640
G1 X104.438 Y105.11 E-.11369
;WIPE_END
G1 E-.88631 F2100
G1 Z.4 F720
G1 X107.201 Y104.646 F10800
G1 Z.2 F720
G1 E1 F1500
M204 S800
;WIDTH:0.625889
G1 F1200
G1 X107.087 Y104.704 E.0062
;WIDTH:0.669352
G1 X106.973 Y104.761 E.00666
;WIDTH:0.712815
G1 X106.859 Y104.819 E.00712
;WIDTH:0.720822
G1 X106.581 Y105.164 E.02493
G1 X106.486 Y105.163 E.00537
G1 X106.3 Y105.092 E.01124
G1 X106.237 Y104.982 E.00717
G1 X106.19 Y104.693 E.0165
G1 X106.211 Y104.42 E.01542
G1 X106.35 Y104.215 E.01399
G1 X106.546 Y104.179 E.01124
G1 X106.87 Y104.531 E.02693
;WIDTH:0.712815
G1 X106.98 Y104.569 E.00651
;WIDTH:0.669352
G1 X107.09 Y104.608 E.00609
;WIDTH:0.625889
G1 X107.116 Y104.617 E.0013
M204 S1000
G1 X107.306 Y104.646 F10800
M204 S800
;WIDTH:0.595141
G1 F1200
G1 X107.408 Y104.642 E.00467
;WIDTH:0.637362
G1 X107.51 Y104.638 E.00503
;WIDTH:0.679583
G1 X107.611 Y104.634 E.00539
;WIDTH:0.721804
G1 X107.713 Y104.63 E.00574
;WIDTH:0.764024
G1 X107.815 Y104.626 E.0061
;WIDTH:0.805793
G1 X107.848 Y104.624 E.0021
;WIDTH:0.847561
G1 X107.881 Y104.623 E.00221
;WIDTH:0.88933
G1 X107.914 Y104.622 E.00233
;WIDTH:0.931098
G1 X107.947 Y104.621 E.00244
;WIDTH:0.972866
G1 X107.98 Y104.619 E.00256
G1 X108 Y104.559 E.00491
;WIDTH:0.931853
G1 X108.021 Y104.499 E.00469
;WIDTH:0.890839
G1 X108.041 Y104.439 E.00448
;WIDTH:0.849826
G1 X108.062 Y104.379 E.00426
;WIDTH:0.808812
G1 X108.082 Y104.319 E.00404
;WIDTH:0.767798
G1 X108.102 Y104.097 E.01343
;WIDTH:0.729093
G1 X108.121 Y103.875 E.01271
M204 S1000
;WIPE_START
G1 F8640
G1 X108.102 Y104.097 E-.05144
G1 X108.082 Y104.319 E-.05144
G1 X108.062 Y104.379 E-.01466
G1 X108.041 Y104.439 E-.01466
G1 X108.021 Y104.499 E-.01466
G1 X108 Y104.559 E-.01466
G1 X107.98 Y104.619 E-.01466
G1 X107.947 Y104.621 E-.00763
G1 X107.914 Y104.622 E-.00763
G1 X107.881 Y104.623 E-.00763
G1 X107.848 Y104.624 E-.00763
G1 X107.815 Y104.626 E-.00763
G1 X107.713 Y104.63 E-.02349
G1 X107.611 Y104.634 E-.02349
G1 X107.51 Y104.638 E-.02349
G1 X107.408 Y104.642 E-.02349
G1 X107.306 Y104.646 E-.02349
;WIPE_END
G1 E-.66821 F2100
G1 Z.4 F720
G1 X108.134 Y105.538 F10800
G1 Z.2 F720
G1 E1 F1500
M204 S800
;WIDTH:0.672438
G1 F1200
G1 X108.13 Y105.089 E.02353
;WIDTH:0.715357
G1 X108.108 Y105.022 E.00394
;WIDTH:0.758275
G1 X108.087 Y104.955 E.00419
;WIDTH:0.801193
G1 X108.066 Y104.888 E.00444
;WIDTH:0.844112
G1 X108.044 Y104.821 E.00469
;WIDTH:0.88703
G1 X108.023 Y104.754 E.00494
;WIDTH:0.929948
G1 X108.001 Y104.686 E.00519
;WIDTH:0.972866
G1 X107.98 Y104.619 E.00545
M204 S1000
;WIPE_START
G1 F8640
G1 X108.001 Y104.686 E-.01626
G1 X108.023 Y104.754 E-.01626
G1 X108.044 Y104.821 E-.01626
G1 X108.066 Y104.888 E-.01626
G1 X108.087 Y104.955 E-.01626
G1 X108.108 Y105.022 E-.01626
G1 X108.13 Y105.089 E-.01626
G1 X108.134 Y105.538 E-.10381
;WIPE_END
G1 E-.78237 F2100
G1 Z.4 F720
G1 X111.736 Y105.077 F10800
G1 Z.2 F720
G1 E1 F1500
M204 S800
;WIDTH:0.590716
G1 F1200
G1 X111.736 Y104.288 E.03595
;WIDTH:0.585096
G1 X111.737 Y104.277 E.0005
M204 S1000
;WIPE_START
G1 F8640
G1 X111.736 Y104.288 E-.00255
G1 X111.736 Y105.077 E-.18224
;WIPE_END
G1 E-.81522 F2100
G1 Z.4 F720
G1 X115.658 Y105.091 F10800
G1 Z.2 F720
G1 E1 F1500
M204 S800
;WIDTH:0.751944
G1 F1200
G1 X115.66 Y104.281 E.04777
;WIDTH:0.794772
G1 X115.637 Y104.081 E.01261
G1 X115.585 Y104.008 E.00559
;WIDTH:0.747932
G1 X115.534 Y103.935 E.00524
;WIDTH:0.701091
G1 X115.482 Y103.862 E.00489
;WIDTH:0.65425
G1 X115.43 Y103.789 E.00454
;WIDTH:0.607409
G1 X115.379 Y103.716 E.0042
;WIDTH:0.569024
G1 X115.313 Y103.572 E.00691
M204 S1000
;WIPE_START
G1 F8640
G1 X115.379 Y103.716 E-.03647
G1 X115.43 Y103.789 E-.02064
G1 X115.482 Y103.862 E-.02064
G1 X115.534 Y103.935 E-.02064
G1 X115.585 Y104.008 E-.02064
G1 X115.637 Y104.081 E-.02064
G1 X115.66 Y104.281 E-.04657
G1 X115.658 Y105.091 E-.18708
;WIPE_END
G1 E-.62669 F2100
G1 Z.4 F720
G1 X117.733 Y103.323 F10800
G1 Z.2 F720
G1 E1 F1500
M204 S800
;WIDTH:0.55292
G1 F1200
G1 X117.727 Y103.489 E.00704
M204 S1000
;WIPE_START
G1 F8640
G1 X117.733 Y103.323 E-.03832
;WIPE_END
G1 E-.96168 F2100
G1 Z.4 F720
G1 X120.255 Y105.542 F10800
G1 Z.2 F720
G1 E1 F1500
M204 S800
;WIDTH:0.56291
G1 F1200
G1 X120.117 Y105.401 E.00854
;WIDTH:0.573472
G1 X119.897 Y105.297 E.01075
G1 X119.549 Y105.318 E.01536
G1 X119.529 Y104.625 E.03058
;WIDTH:0.576679
G1 X119.536 Y104.025 E.02665
;WIDTH:0.618544
G1 X119.894 Y103.941 E.01758
;WIDTH:0.660761
G1 X120.024 Y103.844 E.00834
;WIDTH:0.702977
G1 X120.155 Y103.748 E.00891
G1 X120.126 Y103.928 E.01004
;WIDTH:0.660297
G1 X120.096 Y104.109 E.00939
;WIDTH:0.617617
G1 X120.067 Y104.29 E.00875
;WIDTH:0.574936
G1 X120.069 Y105.062 E.03417
;WIDTH:0.573472
G1 X120.223 Y105.458 E.01875
M204 S1000
G1 X120.373 Y105.774 F10800
M204 S800
;WIDTH:0.55292
G1 F1200
G1 X120.302 Y105.616 E.00731
M204 S1000
;WIPE_START
G1 F8640
G1 X120.373 Y105.774 E-.0398
;WIPE_END
G1 E-.9602 F2100
G1 Z.4 F720
G1 X124.034 Y102.115 F10800
G1 Z.2 F720
G1 E1 F1500
M204 S800
;TYPE:Perimeter
;WIDTH:0.649999
G1 F1200
G1 X124.254 Y102.018 E.01215
G1 X124.764 Y101.995 E.02579
G1 X125.032 Y102.045 E.01372
G1 X125.35 Y101.942 E.01687
G1 X125.929 Y101.906 E.0293
G1 X126.287 Y101.957 E.01827
G1 X126.806 Y102.188 E.02866
G1 X127.101 Y102.402 E.0184
G1 X127.412 Y102.806 E.02573
G1 X127.568 Y103.301 E.02621
G1 X127.524 Y103.869 E.02876
G1 X127.431 Y104.171 E.01595
G1 X127.149 Y104.571 E.02468
G1 X126.751 Y104.865 E.02503
G1 X126.194 Y105.018 E.02914
G1 X126.179 Y105.836 E.0413
G1 X126.115 Y106.271 E.02217
G1 X125.962 Y106.677 E.0219
G1 X125.783 Y106.914 E.01499
G1 X125.411 Y107.233 E.02474
G1 X124.928 Y107.391 E.02569
G1 X124.66 Y107.418 E.01361
G1 X124.224 Y107.378 E.02209
G1 X123.905 Y107.228 E.01778
G1 X123.57 Y106.847 E.02565
G1 X123.133 Y107.183 E.02784
G1 X122.642 Y107.386 E.02678
G1 X122.116 Y107.46 E.02681
G1 X121.682 Y107.419 E.02203
G1 X121.329 Y107.345 E.01819
G1 X120.569 Y106.924 E.04384
G1 X120.122 Y107.247 E.02788
G1 X119.849 Y107.353 E.01474
G1 X119.276 Y107.377 E.02896
G1 X118.73 Y107.281 E.02799
G1 X118.16 Y107.008 E.03189
G1 X117.562 Y107.28 E.03316
G1 X117.158 Y107.406 E.02138
G1 X116.548 Y107.392 E.0308
G1 X116.022 Y107.227 E.02781
G1 X115.665 Y106.954 E.02268
G1 X115.472 Y106.673 E.01719
G1 X115.242 Y106.925 E.0172
G1 X114.882 Y107.191 E.02262
G1 X114.373 Y107.395 E.02768
G1 X113.743 Y107.485 E.03213
G1 X113.218 Y107.439 E.02661
G1 X112.935 Y107.367 E.01472
G1 X112.445 Y107.148 E.02708
G1 X112.041 Y106.792 E.02719
G1 X111.649 Y107.189 E.02818
G1 X111.356 Y107.335 E.01652
G1 X110.98 Y107.364 E.01905
G1 X110.533 Y107.279 E.02295
G1 X110.105 Y107.073 E.024
G1 X109.95 Y106.883 E.01237
G1 X109.792 Y107.07 E.01237
G1 X109.425 Y107.262 E.02091
G1 X109.042 Y107.347 E.01981
G1 X108.553 Y107.323 E.02475
G1 X108.258 Y107.18 E.01652
G1 X107.903 Y106.835 E.02498
G1 X107.431 Y107.185 E.02966
G1 X106.927 Y107.393 E.02752
;WIDTH:0.643006
G1 X106.36 Y107.461 E.02849
;WIDTH:0.66064
G1 X106.189 Y107.474 E.00881
;WIDTH:0.708403
G1 X106.018 Y107.487 E.00949
;WIDTH:0.756166
G1 X105.847 Y107.5 E.01017
G1 X105.299 Y107.319 E.03424
;WIDTH:0.785382
G1 X105.142 Y107.256 E.01044
;WIDTH:0.82607
G1 X104.985 Y107.194 E.01101
;WIDTH:0.866758
G1 X104.828 Y107.131 E.01159
;WIDTH:0.909105
G1 X104.45 Y106.774 E.03746
G1 X104.171 Y107.056 E.02857
G1 X104.031 Y107.106 E.01069
;WIDTH:0.86531
G1 X103.892 Y107.156 E.01015
;WIDTH:0.821515
G1 X103.752 Y107.206 E.00961
;WIDTH:0.77772
G1 X103.612 Y107.257 E.00907
;WIDTH:0.733925
G1 X103.473 Y107.307 E.00853
;WIDTH:0.69013
G1 X103.333 Y107.357 E.00799
;WIDTH:0.646335
G1 X102.923 Y107.403 E.02069
;WIDTH:0.606554
G1 X102.513 Y107.449 E.01933
;WIDTH:0.603485
G1 X102.193 Y107.445 E.01494
;WIDTH:0.640197
G1 X101.872 Y107.44 E.01592
;WIDTH:0.649999
G1 X101.454 Y107.372 E.02139
G1 X101.243 Y107.291 E.01141
;WIDTH:0.69957
G1 X101.147 Y107.28 E.00528
;WIDTH:0.74914
G1 X101.051 Y107.269 E.00568
;WIDTH:0.798711
G1 X100.955 Y107.258 E.00608
;WIDTH:0.848281
G1 X100.859 Y107.247 E.00647
;WIDTH:0.897851
G1 X100.763 Y107.236 E.00687
;WIDTH:0.904017
G1 X100.589 Y107.132 E.01451
G1 X100.53 Y107.058 E.00679
;WIDTH:0.861681
G1 X100.471 Y106.983 E.00645
;WIDTH:0.819345
G1 X100.412 Y106.909 E.00612
;WIDTH:0.777008
G1 X100.353 Y106.835 E.00579
;WIDTH:0.734672
G1 X100.295 Y106.761 E.00545
;WIDTH:0.692336
G1 X100.236 Y106.686 E.00512
;WIDTH:0.649999
G1 X99.921 Y106.285 E.02572
G1 X99.766 Y105.947 E.01881
;WIDTH:0.648974
G1 X99.641 Y105.457 E.02546
;WIDTH:0.618203
G1 X99.627 Y105.392 E.00321
;WIDTH:0.648974
G1 X99.596 Y105.941 E.02772
;WIDTH:0.649999
G1 X99.426 Y106.325 E.02122
G1 X99.145 Y106.74 E.02529
;WIDTH:0.689799
G1 X99.011 Y106.872 E.01012
;WIDTH:0.729599
G1 X98.877 Y107.005 E.01074
;WIDTH:0.769399
G1 X98.744 Y107.137 E.01136
;WIDTH:0.774955
G1 X98.452 Y107.291 E.02008
G1 X98.27 Y107.328 E.01131
;WIDTH:0.735534
G1 X98.088 Y107.364 E.0107
;WIDTH:0.696113
G1 X97.905 Y107.401 E.01009
;WIDTH:0.656691
G1 X97.59 Y107.459 E.01636
;WIDTH:0.649999
G1 X97.009 Y107.466 E.02932
G1 X96.458 Y107.342 E.02851
G1 X96.202 Y107.238 E.01396
G1 X95.712 Y106.946 E.02878
G1 X95.317 Y107.284 E.02625
G1 X95.026 Y107.4 E.01581
G1 X94.63 Y107.408 E.02003
G1 X94.121 Y107.311 E.02611
G1 X93.578 Y107.448 E.02827
G1 X93.011 Y107.437 E.02862
G1 X92.438 Y107.282 E.02999
G1 X91.935 Y106.909 E.0316
G1 X91.824 Y107.024 E.00807
G1 X91.32 Y107.314 E.02934
G1 X91.032 Y107.365 E.01477
G1 X90.598 Y107.304 E.02216
G1 X90.277 Y107.112 E.01886
G1 X89.984 Y106.818 E.02097
G1 X89.72 Y107.078 E.0187
G1 X89.237 Y107.346 E.02785
G1 X88.718 Y107.459 E.02681
G1 X88.204 Y107.446 E.02596
G1 X87.676 Y107.268 E.02813
G1 X87.214 Y107.343 E.02362
G1 X86.889 Y107.345 E.01641
G1 X86.537 Y107.216 E.01893
G1 X86.287 Y107.034 E.01561
G1 X86.096 Y106.787 E.01577
G1 X85.685 Y107.152 E.02771
G1 X85.131 Y107.395 E.03055
G1 X84.605 Y107.481 E.02694
;WIDTH:0.66914
G1 X84.068 Y107.472 E.02797
;WIDTH:0.691517
G1 X83.797 Y107.444 E.01465
G1 X83.276 Y107.264 E.02975
;WIDTH:0.672806
G1 X82.8 Y106.978 E.02908
;WIDTH:0.649999
